X:741
T:The monk's jig
T:The Reverend Brother's jig
T:Sonny Brogan's
R:Jig
D:Oisin: Over the Moor to Maggie
B:Ceol Rince 1 n21
B:Irish Traditional Music Session Tunes 3 n1
S:My arrangement from various sources
Z:Transcription, arrangement, chords:Mike Long
M:6/8
K:G
A|\
"Am"ABA c2e|"G"dcd e2A|"Am"ABA cde|"G"dcA AGE|\
"Am"EAB c2e|"G"dcd e2a|"Em"aba ged|"G"cAG "Am"A2:|
|:e|\
"Am"eaa aba|"G"gef g2e|"Am"eaa aba|"G"ged cAA|\
"Am"eaa aba|"G"gef g2b|"Em"aba ged|"G"cAG "Am"A2:|
